X:425
T:Valse Dauphinoise
Z:Jack Campin, http://www.campin.me.uk/
Z:Brabants Bourdon Orkest, Michel Heijblom
F:Jack Campin's Nine-Note Tunebook
% last edit 19-02-2013
M:3/4
L:1/4
Q:3/4=72
K:FMix
CFA|c3 |Bcd|c2A|FAc|B2G|E G   B   |A/B/A/G/ F|
CFA|c3 |Bcd|c2A|FAc|BGE|G B   A   |F3       :|
C2F|BAG|FED|C3 |DEF|GEG|B A/B/A/G/|A2       F|
C2F|BAG|FED|C3 |DEF|GEG|B A   G   |F3       :|

